X:1
T:Title
%%score { ( 1 4 ) | ( 2 3 ) }
L:1/8
M:6/8
K:G
V:1 treble nm="Grand Piano"
V:4 treble 
V:2 treble 
V:3 treble 
V:1
 z3 z2[Q:1/4=81] G/A/ | B2 B B2 A/G/ | F>GA [B,DG]2 [CE] | [B,D][CE][B,G] [DB]2 [Ec]/[DB]/ | %4
[M:7/8] B->[AB-][GB-] [AB-]3 [GB-]/[AB-]/ |[M:3/4] [DB]2 B B2 [DA]/G/ | E2 [Ec] [Ec]2 B/c/ | %7
 d>d d d2 B |[M:7/8] B2 G [FA]3 [DA]/[GB]/ |[M:3/4] [Fc]>[Fc] [DFc] [DGB]2 [DG] | %10
[M:5/8] [DGB]2 [CFA] [B,G]2[Q:1/4=80][Q:1/4=78][Q:1/4=77][Q:1/4=76][Q:1/4=75][Q:1/4=73][Q:1/4=72][Q:1/4=71][Q:1/4=70][Q:1/4=68][Q:1/4=67][Q:1/4=66][Q:1/4=65][Q:1/4=63][Q:1/4=62] |] %11
V:2
 z3 z2 B,/[CG]/ | [G,DG]2 [G,DG] [G,DG]2[K:bass] [G,CD]/[G,B,D]/ | %2
 [D,A,D]>[D,B,D][D,CD] G,,2 [G,,G,] | [G,,G,]2 [G,,G,] [G,,G,]2 [G,,G,] |[M:7/8] z z z z z2 G, | %5
[M:3/4] G,2 [G,D] [G,D]2 G,/-[D,G,D]/ | [C,G,C]2 [C,G,] [C,G,]2[K:treble] D/[A,D]/ | %7
 [G,B,D]>[G,B,G] [G,B,G] [G,B,G]2[K:bass] [G,D] |[M:7/8] [G,D]2 [E,B,E] [D,D]3 [D,F,]/[D,G,]/ | %9
[M:3/4] [D,A,]>[D,A,] D, G,2 B,, |[M:5/8] D,2 D, G,,2 |] %11
V:3
 z3 z2 G, | x5[K:bass] x | x6 | x6 |[M:7/8] [G,,G,]>[A,,F,][D,G,D] [D,F,D]3 B,/C/ | %5
[M:3/4] z2 z2 z .B,, | z2 z2 z[K:treble] G, | x5[K:bass] x |[M:7/8] x7 |[M:3/4] x6 |[M:5/8] x5 |] %11
V:4
 x6 | x6 | x6 | x6 |[M:7/8] D2 z z z z2 |[M:3/4] x6 | x6 | x6 |[M:7/8] x7 |[M:3/4] x6 | %10
[M:5/8] x5 |] %11

